devday/devday/static/img/logo-24.svg

<?xml version="1.0" encoding="UTF-8"?>
<svg clip-rule="evenodd" fill-rule="evenodd" stroke-linejoin="round" stroke-miterlimit="2" version="1.1" viewBox="0 0 175 59" xml:space="preserve" xmlns="http://www.w3.org/2000/svg" xmlns:serif="http://www.serif.com/">
    <g transform="translate(-1 -126)">
        <g transform="matrix(.49145 0 0 .44228 .32065 70.194)">
            <rect id="Logo-Website" x="1.382" y="126.18" width="356.09" height="133.4" fill="none" serif:id="Logo Website"/>
            <g serif:id="Logo Website">
                <g id="Pfade" transform="matrix(.99748 0 0 .77146 221.28 120.65)">
                    <g transform="matrix(1.3504 0 0 1.9401 -220.95 -27.754)">
                        <path d="m16.416 93.516h3.24v-3.384h-1.944c-3.888 0-4.896-1.872-4.896-6.552 0-4.392 0.432-8.136 0.432-13.032 0-4.608-1.224-6.984-4.32-7.848v-0.288c3.096-0.864 4.32-3.168 4.32-7.848 0-4.896-0.432-8.64-0.432-13.032 0-4.68 1.008-6.552 4.896-6.552h1.944v-3.384h-3.24c-5.688 0-8.424 2.16-8.424 9.576 0 5.256 0.648 9.072 0.648 13.968 0 2.736-1.296 5.472-6.192 5.544v3.744c4.896 0.072 6.192 2.808 6.192 5.616 0 4.824-0.648 8.64-0.648 13.896 0 7.416 2.736 9.576 8.424 9.576z" fill="#999" fill-rule="nonzero"/>
                    </g>
                    <g transform="matrix(1.3504 0 0 1.9401 110.38 -27.754)">
                        <path d="m2.232 93.516h3.168c5.76 0 8.424-2.16 8.424-9.576 0-5.256-0.648-9.072-0.648-13.896 0-2.808 1.368-5.544 6.192-5.616v-3.744c-4.824-0.072-6.192-2.808-6.192-5.544 0-4.896 0.648-8.712 0.648-13.968 0-7.416-2.664-9.576-8.424-9.576h-3.168v3.384h1.872c3.888 0 4.896 1.872 4.896 6.552 0 4.392-0.36 8.136-0.36 13.032 0 4.68 1.152 6.984 4.248 7.848v0.288c-3.096 0.864-4.248 3.24-4.248 7.848 0 4.896 0.36 8.64 0.36 13.032 0 4.68-1.008 6.552-4.896 6.552h-1.872v3.384z" fill="#999" fill-rule="nonzero"/>
                    </g>
                    <g transform="matrix(.90307 0 0 1.2975 -217.89 39.87)" fill="#248a97" fill-rule="nonzero">
                        <path d="m70.951 60.257c-1.649 2.474-3.792 4.342-6.431 5.607-2.638 1.264-5.359 1.896-8.162 1.896-3.023 0-5.757-0.522-8.203-1.567-2.446-1.044-4.535-2.473-6.266-4.287-1.732-1.814-3.078-3.957-4.04-6.431-0.962-2.473-1.443-5.139-1.443-7.997s0.481-5.524 1.443-7.997c0.962-2.474 2.308-4.618 4.04-6.431 1.731-1.814 3.82-3.243 6.266-4.288 2.446-1.044 5.18-1.566 8.203-1.566 2.803 0 5.524 0.646 8.162 1.937 2.639 1.292 4.782 3.202 6.431 5.73h0.165v-30.423h5.607v62.331h-5.607v-6.514h-0.165zm-28.609-12.779c0 2.144 0.33 4.163 0.989 6.06 0.66 1.896 1.608 3.545 2.845 4.947 1.237 1.401 2.762 2.501 4.576 3.297 1.814 0.797 3.875 1.196 6.183 1.196 2.144 0 4.123-0.399 5.936-1.196 1.814-0.796 3.381-1.882 4.7-3.256s2.35-3.009 3.092-4.906c0.742-1.896 1.113-3.944 1.113-6.142 0-2.199-0.371-4.246-1.113-6.142-0.742-1.897-1.773-3.546-3.092-4.947-1.319-1.402-2.886-2.501-4.7-3.298-1.813-0.797-3.792-1.196-5.936-1.196-2.308 0-4.369 0.413-6.183 1.237-1.814 0.825-3.339 1.938-4.576 3.339-1.237 1.402-2.185 3.051-2.845 4.947-0.659 1.896-0.989 3.916-0.989 6.06z"/>
                        <path d="m117.86 44.51c-0.165-3.628-1.333-6.637-3.504-9.028s-5.263-3.587-9.276-3.587c-1.868 0-3.6 0.344-5.194 1.031s-2.995 1.621-4.205 2.803c-1.209 1.182-2.171 2.529-2.885 4.04-0.715 1.512-1.127 3.092-1.237 4.741h26.301zm5.689 1.814v1.236c0 0.44-0.028 0.907-0.083 1.402h-31.989c0.055 1.924 0.439 3.738 1.154 5.441 0.714 1.704 1.704 3.188 2.968 4.453 1.264 1.264 2.748 2.267 4.452 3.009s3.545 1.113 5.524 1.113c2.913 0 5.428-0.673 7.544-2.02s3.724-2.899 4.823-4.658l4.205 3.298c-2.308 2.913-4.851 5.001-7.626 6.266-2.776 1.264-5.758 1.896-8.946 1.896-2.858 0-5.51-0.509-7.956-1.525-2.446-1.017-4.548-2.433-6.307-4.246-1.759-1.814-3.147-3.958-4.164-6.431-1.017-2.474-1.525-5.167-1.525-8.08s0.495-5.607 1.484-8.08 2.363-4.617 4.122-6.431 3.82-3.229 6.184-4.246c2.363-1.017 4.919-1.525 7.667-1.525 3.024 0 5.689 0.508 7.998 1.525 2.308 1.017 4.232 2.391 5.771 4.123 1.539 1.731 2.707 3.751 3.504 6.059 0.797 2.309 1.196 4.782 1.196 7.421z"/>
                        <path d="m148.95 66.771h-6.183l-15.748-38.586h6.266l12.532 32.649h0.165l12.615-32.649h6.018l-15.665 38.586z"/>
                        <path d="m202.62 60.257c-1.649 2.474-3.793 4.342-6.431 5.607-2.639 1.264-5.359 1.896-8.163 1.896-3.023 0-5.757-0.522-8.203-1.567-2.446-1.044-4.535-2.473-6.266-4.287-1.732-1.814-3.078-3.957-4.04-6.431-0.962-2.473-1.443-5.139-1.443-7.997s0.481-5.524 1.443-7.997c0.962-2.474 2.308-4.618 4.04-6.431 1.731-1.814 3.82-3.243 6.266-4.288 2.446-1.044 5.18-1.566 8.203-1.566 2.804 0 5.524 0.646 8.163 1.937 2.638 1.292 4.782 3.202 6.431 5.73h0.164v-30.423h5.607v62.331h-5.607v-6.514h-0.164zm-28.61-12.779c0 2.144 0.33 4.163 0.99 6.06 0.659 1.896 1.607 3.545 2.844 4.947 1.237 1.401 2.762 2.501 4.576 3.297 1.814 0.797 3.875 1.196 6.183 1.196 2.144 0 4.123-0.399 5.937-1.196 1.814-0.796 3.38-1.882 4.699-3.256s2.35-3.009 3.092-4.906c0.742-1.896 1.113-3.944 1.113-6.142 0-2.199-0.371-4.246-1.113-6.142-0.742-1.897-1.773-3.546-3.092-4.947-1.319-1.402-2.885-2.501-4.699-3.298s-3.793-1.196-5.937-1.196c-2.308 0-4.369 0.413-6.183 1.237-1.814 0.825-3.339 1.938-4.576 3.339-1.237 1.402-2.185 3.051-2.844 4.947-0.66 1.896-0.99 3.916-0.99 6.06z"/>
                        <path d="m241.95 41.871c0-3.352-0.88-5.853-2.638-7.502-1.759-1.649-4.315-2.474-7.668-2.474-2.309 0-4.452 0.413-6.431 1.237-1.979 0.825-3.655 1.924-5.029 3.298l-3.133-3.71c1.594-1.594 3.696-2.913 6.307-3.958 2.611-1.044 5.565-1.566 8.863-1.566 2.089 0 4.04 0.288 5.854 0.866 1.814 0.577 3.408 1.442 4.782 2.597 1.374 1.154 2.446 2.61 3.215 4.369 0.77 1.759 1.154 3.82 1.154 6.184v16.902c0 1.484 0.055 3.023 0.165 4.617s0.275 2.94 0.495 4.04h-5.029c-0.165-0.935-0.303-1.952-0.412-3.051-0.11-1.099-0.165-2.171-0.165-3.215h-0.165c-1.759 2.583-3.752 4.438-5.978 5.565s-4.905 1.69-8.038 1.69c-1.484 0-3.01-0.206-4.576-0.618-1.567-0.413-2.996-1.086-4.287-2.02-1.292-0.935-2.364-2.144-3.216-3.628s-1.278-3.298-1.278-5.442c0-2.968 0.756-5.317 2.268-7.049 1.511-1.731 3.531-3.023 6.059-3.875 2.529-0.852 5.428-1.401 8.699-1.649 3.27-0.247 6.664-0.371 10.182-0.371v-1.237zm-1.649 5.607c-2.309 0-4.631 0.096-6.967 0.288-2.336 0.193-4.452 0.578-6.348 1.155-1.897 0.577-3.449 1.415-4.659 2.514-1.209 1.1-1.813 2.556-1.813 4.37 0 1.374 0.261 2.528 0.783 3.463 0.522 0.934 1.223 1.69 2.102 2.267 0.88 0.577 1.855 0.99 2.927 1.237s2.157 0.371 3.257 0.371c1.978 0 3.737-0.344 5.276-1.031s2.831-1.621 3.875-2.803c1.045-1.182 1.842-2.542 2.391-4.081 0.55-1.539 0.825-3.161 0.825-4.864v-2.886h-1.649z"/>
                        <path d="m269.15 60.752h0.165l11.955-32.567h6.101l-19.21 48.562c-1.154 2.968-2.625 5.345-4.411 7.131-1.786 1.787-4.356 2.68-7.709 2.68-1.704 0-3.38-0.165-5.029-0.495l0.577-5.112c1.319 0.44 2.693 0.66 4.123 0.66 1.923 0 3.435-0.591 4.534-1.773 1.099-1.181 2.061-2.871 2.886-5.07l3.133-8.08-16.49-38.503h6.266l13.109 32.567z"/>
                    </g>
                    <g transform="matrix(1.094 0 0 1.4838 -255.88 29.917)" fill="#838585" fill-rule="nonzero">
                        <path d="m275.17 64.064c0 0.889-0.323 1.676-0.97 2.36-0.646 0.685-1.463 1.027-2.45 1.027-0.953 0-1.762-0.334-2.425-1.001-0.664-0.667-0.996-1.445-0.996-2.335 0-0.924 0.323-1.719 0.97-2.386s1.464-1.001 2.451-1.001 1.804 0.325 2.45 0.975c0.647 0.65 0.97 1.437 0.97 2.361z"/>
                        <path d="m302.99 67.143h-23.587v-4.773l14.397-14.369c1.089-1.129 2.025-2.309 2.808-3.54 0.783-1.232 1.174-2.618 1.174-4.157 0-0.958-0.17-1.822-0.51-2.592-0.34-0.769-0.8-1.428-1.379-1.975-0.578-0.548-1.259-0.967-2.042-1.258s-1.616-0.436-2.501-0.436c-1.838 0-3.353 0.59-4.544 1.771-1.191 1.18-1.94 2.694-2.247 4.541l-4.85-0.821c0.204-1.368 0.638-2.643 1.302-3.823s1.506-2.207 2.527-3.079c1.021-0.873 2.204-1.548 3.549-2.027 1.344-0.479 2.782-0.719 4.314-0.719 1.497 0 2.935 0.223 4.314 0.667 1.378 0.445 2.595 1.095 3.65 1.951 1.055 0.855 1.898 1.932 2.527 3.233 0.63 1.3 0.945 2.788 0.945 4.464 0 1.163-0.153 2.241-0.46 3.233-0.306 0.992-0.723 1.933-1.25 2.823-0.528 0.889-1.149 1.736-1.864 2.54s-1.463 1.599-2.246 2.386l-11.743 11.495h17.716v4.465z"/>
                    </g>
                    <g id="Text" transform="matrix(1.1874 1.166e-16 -6.044e-16 1.7059 -275.11 15.543)">
                        <g transform="matrix(.99487 0 0 1 1.5303 0)">
                            
                            <text x="298.439px" y="66.874px" fill="rgb(131,133,133)" font-family="'SourceSansPro-Regular', 'Source Sans Pro', sans-serif" font-size="50.968px">4</text>
                        </g>
                    </g>
                    <g transform="matrix(1.1874 1.166e-16 -6.044e-16 1.7059 -275.11 15.543)" serif:id="Text">
                        <path d="m303.71 54.539h10.142v-9.429c0-0.883 0.034-1.936 0.101-3.16 0.068-1.223 0.118-2.259 0.152-3.109h-0.203c-0.405 0.782-0.828 1.546-1.267 2.294-0.44 0.747-0.896 1.512-1.369 2.293l-7.556 11.111zm10.142 12.335v-8.971h-14.553v-2.752l13.843-20.795h4.665v20.183h4.411v3.364h-4.411v8.971h-3.955z" fill="#838585" fill-rule="nonzero"/>
                    </g>
                </g>
            </g>
        </g>
    </g>
</svg>

<?xml version="1.0" encoding="UTF-8" standalone="no"?>
<!DOCTYPE svg PUBLIC "-//W3C//DTD SVG 1.1//EN" "http://www.w3.org/Graphics/SVG/1.1/DTD/svg11.dtd">
<svg width="175" height="59" viewBox="0 0 175 59" version="1.1" xmlns="http://www.w3.org/2000/svg" xmlns:xlink="http://www.w3.org/1999/xlink" xml:space="preserve" xmlns:serif="http://www.serif.com/" style="fill-rule:evenodd;clip-rule:evenodd;stroke-linejoin:round;stroke-miterlimit:2;">
    <g transform="matrix(1,0,0,1,-1,-126)">
        <g transform="matrix(0.491449,0,0,0.44228,0.320648,70.1937)">
            <rect id="Logo-Website" serif:id="Logo Website" x="1.382" y="126.179" width="356.09" height="133.4" style="fill:none;"/>
            <g id="Logo-Website1" serif:id="Logo Website">
                <g id="Pfade" transform="matrix(0.997477,0,0,0.771455,221.284,120.65)">
                    <g transform="matrix(1.35035,0,0,1.94009,-220.95,-27.7545)">
                        <path d="M16.416,93.516L19.656,93.516L19.656,90.132L17.712,90.132C13.824,90.132 12.816,88.26 12.816,83.58C12.816,79.188 13.248,75.444 13.248,70.548C13.248,65.94 12.024,63.564 8.928,62.7L8.928,62.412C12.024,61.548 13.248,59.244 13.248,54.564C13.248,49.668 12.816,45.924 12.816,41.532C12.816,36.852 13.824,34.98 17.712,34.98L19.656,34.98L19.656,31.596L16.416,31.596C10.728,31.596 7.992,33.756 7.992,41.172C7.992,46.428 8.64,50.244 8.64,55.14C8.64,57.876 7.344,60.612 2.448,60.684L2.448,64.428C7.344,64.5 8.64,67.236 8.64,70.044C8.64,74.868 7.992,78.684 7.992,83.94C7.992,91.356 10.728,93.516 16.416,93.516Z" style="fill:rgb(153,153,153);fill-rule:nonzero;"/>
                    </g>
                    <g transform="matrix(1.35035,0,0,1.94009,110.379,-27.7545)">
                        <path d="M2.232,93.516L5.4,93.516C11.16,93.516 13.824,91.356 13.824,83.94C13.824,78.684 13.176,74.868 13.176,70.044C13.176,67.236 14.544,64.5 19.368,64.428L19.368,60.684C14.544,60.612 13.176,57.876 13.176,55.14C13.176,50.244 13.824,46.428 13.824,41.172C13.824,33.756 11.16,31.596 5.4,31.596L2.232,31.596L2.232,34.98L4.104,34.98C7.992,34.98 9,36.852 9,41.532C9,45.924 8.64,49.668 8.64,54.564C8.64,59.244 9.792,61.548 12.888,62.412L12.888,62.7C9.792,63.564 8.64,65.94 8.64,70.548C8.64,75.444 9,79.188 9,83.58C9,88.26 7.992,90.132 4.104,90.132L2.232,90.132L2.232,93.516Z" style="fill:rgb(153,153,153);fill-rule:nonzero;"/>
                    </g>
                    <g transform="matrix(0.903072,0,0,1.29746,-217.891,39.8703)">
                        <path d="M70.951,60.257C69.302,62.731 67.159,64.599 64.52,65.864C61.882,67.128 59.161,67.76 56.358,67.76C53.335,67.76 50.601,67.238 48.155,66.193C45.709,65.149 43.62,63.72 41.889,61.906C40.157,60.092 38.811,57.949 37.849,55.475C36.887,53.002 36.406,50.336 36.406,47.478C36.406,44.62 36.887,41.954 37.849,39.481C38.811,37.007 40.157,34.863 41.889,33.05C43.62,31.236 45.709,29.807 48.155,28.762C50.601,27.718 53.335,27.196 56.358,27.196C59.161,27.196 61.882,27.842 64.52,29.133C67.159,30.425 69.302,32.335 70.951,34.863L71.116,34.863L71.116,4.44L76.723,4.44L76.723,66.771L71.116,66.771L71.116,60.257L70.951,60.257ZM42.342,47.478C42.342,49.622 42.672,51.641 43.331,53.538C43.991,55.434 44.939,57.083 46.176,58.485C47.413,59.886 48.938,60.986 50.752,61.782C52.566,62.579 54.627,62.978 56.935,62.978C59.079,62.978 61.058,62.579 62.871,61.782C64.685,60.986 66.252,59.9 67.571,58.526C68.89,57.152 69.921,55.517 70.663,53.62C71.405,51.724 71.776,49.676 71.776,47.478C71.776,45.279 71.405,43.232 70.663,41.336C69.921,39.439 68.89,37.79 67.571,36.389C66.252,34.987 64.685,33.888 62.871,33.091C61.058,32.294 59.079,31.895 56.935,31.895C54.627,31.895 52.566,32.308 50.752,33.132C48.938,33.957 47.413,35.07 46.176,36.471C44.939,37.873 43.991,39.522 43.331,41.418C42.672,43.314 42.342,45.334 42.342,47.478Z" style="fill:rgb(36,138,151);fill-rule:nonzero;"/>
                        <path d="M117.864,44.51C117.699,40.882 116.531,37.873 114.36,35.482C112.189,33.091 109.097,31.895 105.084,31.895C103.216,31.895 101.484,32.239 99.89,32.926C98.296,33.613 96.895,34.547 95.685,35.729C94.476,36.911 93.514,38.258 92.8,39.769C92.085,41.281 91.673,42.861 91.563,44.51L117.864,44.51ZM123.553,46.324L123.553,47.56C123.553,48 123.525,48.467 123.47,48.962L91.481,48.962C91.536,50.886 91.92,52.7 92.635,54.403C93.349,56.107 94.339,57.591 95.603,58.856C96.867,60.12 98.351,61.123 100.055,61.865C101.759,62.607 103.6,62.978 105.579,62.978C108.492,62.978 111.007,62.305 113.123,60.958C115.239,59.611 116.847,58.059 117.946,56.3L122.151,59.598C119.843,62.511 117.3,64.599 114.525,65.864C111.749,67.128 108.767,67.76 105.579,67.76C102.721,67.76 100.069,67.251 97.623,66.235C95.177,65.218 93.075,63.802 91.316,61.989C89.557,60.175 88.169,58.031 87.152,55.558C86.135,53.084 85.627,50.391 85.627,47.478C85.627,44.565 86.122,41.871 87.111,39.398C88.1,36.925 89.474,34.781 91.233,32.967C92.992,31.153 95.053,29.738 97.417,28.721C99.78,27.704 102.336,27.196 105.084,27.196C108.108,27.196 110.773,27.704 113.082,28.721C115.39,29.738 117.314,31.112 118.853,32.844C120.392,34.575 121.56,36.595 122.357,38.903C123.154,41.212 123.553,43.685 123.553,46.324Z" style="fill:rgb(36,138,151);fill-rule:nonzero;"/>
                        <path d="M148.946,66.771L142.763,66.771L127.015,28.185L133.281,28.185L145.813,60.834L145.978,60.834L158.593,28.185L164.611,28.185L148.946,66.771Z" style="fill:rgb(36,138,151);fill-rule:nonzero;"/>
                        <path d="M202.62,60.257C200.971,62.731 198.827,64.599 196.189,65.864C193.55,67.128 190.83,67.76 188.026,67.76C185.003,67.76 182.269,67.238 179.823,66.193C177.377,65.149 175.288,63.72 173.557,61.906C171.825,60.092 170.479,57.949 169.517,55.475C168.555,53.002 168.074,50.336 168.074,47.478C168.074,44.62 168.555,41.954 169.517,39.481C170.479,37.007 171.825,34.863 173.557,33.05C175.288,31.236 177.377,29.807 179.823,28.762C182.269,27.718 185.003,27.196 188.026,27.196C190.83,27.196 193.55,27.842 196.189,29.133C198.827,30.425 200.971,32.335 202.62,34.863L202.784,34.863L202.784,4.44L208.391,4.44L208.391,66.771L202.784,66.771L202.784,60.257L202.62,60.257ZM174.01,47.478C174.01,49.622 174.34,51.641 175,53.538C175.659,55.434 176.607,57.083 177.844,58.485C179.081,59.886 180.606,60.986 182.42,61.782C184.234,62.579 186.295,62.978 188.603,62.978C190.747,62.978 192.726,62.579 194.54,61.782C196.354,60.986 197.92,59.9 199.239,58.526C200.558,57.152 201.589,55.517 202.331,53.62C203.073,51.724 203.444,49.676 203.444,47.478C203.444,45.279 203.073,43.232 202.331,41.336C201.589,39.439 200.558,37.79 199.239,36.389C197.92,34.987 196.354,33.888 194.54,33.091C192.726,32.294 190.747,31.895 188.603,31.895C186.295,31.895 184.234,32.308 182.42,33.132C180.606,33.957 179.081,35.07 177.844,36.471C176.607,37.873 175.659,39.522 175,41.418C174.34,43.314 174.01,45.334 174.01,47.478Z" style="fill:rgb(36,138,151);fill-rule:nonzero;"/>
                        <path d="M241.947,41.871C241.947,38.519 241.067,36.018 239.309,34.369C237.55,32.72 234.994,31.895 231.641,31.895C229.332,31.895 227.189,32.308 225.21,33.132C223.231,33.957 221.555,35.056 220.181,36.43L217.048,32.72C218.642,31.126 220.744,29.807 223.355,28.762C225.966,27.718 228.92,27.196 232.218,27.196C234.307,27.196 236.258,27.484 238.072,28.062C239.886,28.639 241.48,29.504 242.854,30.659C244.228,31.813 245.3,33.269 246.069,35.028C246.839,36.787 247.223,38.848 247.223,41.212L247.223,58.114C247.223,59.598 247.278,61.137 247.388,62.731C247.498,64.325 247.663,65.671 247.883,66.771L242.854,66.771C242.689,65.836 242.551,64.819 242.442,63.72C242.332,62.621 242.277,61.549 242.277,60.505L242.112,60.505C240.353,63.088 238.36,64.943 236.134,66.07C233.908,67.197 231.229,67.76 228.096,67.76C226.612,67.76 225.086,67.554 223.52,67.142C221.953,66.729 220.524,66.056 219.233,65.122C217.941,64.187 216.869,62.978 216.017,61.494C215.165,60.01 214.739,58.196 214.739,56.052C214.739,53.084 215.495,50.735 217.007,49.003C218.518,47.272 220.538,45.98 223.066,45.128C225.595,44.276 228.494,43.727 231.765,43.479C235.035,43.232 238.429,43.108 241.947,43.108L241.947,41.871ZM240.298,47.478C237.989,47.478 235.667,47.574 233.331,47.766C230.995,47.959 228.879,48.344 226.983,48.921C225.086,49.498 223.534,50.336 222.324,51.435C221.115,52.535 220.511,53.991 220.511,55.805C220.511,57.179 220.772,58.333 221.294,59.268C221.816,60.202 222.517,60.958 223.396,61.535C224.276,62.112 225.251,62.525 226.323,62.772C227.395,63.019 228.48,63.143 229.58,63.143C231.558,63.143 233.317,62.799 234.856,62.112C236.395,61.425 237.687,60.491 238.731,59.309C239.776,58.127 240.573,56.767 241.122,55.228C241.672,53.689 241.947,52.067 241.947,50.364L241.947,47.478L240.298,47.478Z" style="fill:rgb(36,138,151);fill-rule:nonzero;"/>
                        <path d="M269.154,60.752L269.319,60.752L281.274,28.185L287.375,28.185L268.165,76.747C267.011,79.715 265.54,82.092 263.754,83.878C261.968,85.665 259.398,86.558 256.045,86.558C254.341,86.558 252.665,86.393 251.016,86.063L251.593,80.951C252.912,81.391 254.286,81.611 255.716,81.611C257.639,81.611 259.151,81.02 260.25,79.838C261.349,78.657 262.311,76.967 263.136,74.768L266.269,66.688L249.779,28.185L256.045,28.185L269.154,60.752Z" style="fill:rgb(36,138,151);fill-rule:nonzero;"/>
                    </g>
                    <g transform="matrix(1.094,0,0,1.48383,-255.883,29.9166)">
                        <path d="M275.168,64.064C275.168,64.953 274.845,65.74 274.198,66.424C273.552,67.109 272.735,67.451 271.748,67.451C270.795,67.451 269.986,67.117 269.323,66.45C268.659,65.783 268.327,65.005 268.327,64.115C268.327,63.191 268.65,62.396 269.297,61.729C269.944,61.062 270.761,60.728 271.748,60.728C272.735,60.728 273.552,61.053 274.198,61.703C274.845,62.353 275.168,63.14 275.168,64.064Z" style="fill:rgb(131,133,133);fill-rule:nonzero;"/>
                        <path d="M302.993,67.143L279.406,67.143L279.406,62.37L293.803,48.001C294.892,46.872 295.828,45.692 296.611,44.461C297.394,43.229 297.785,41.843 297.785,40.304C297.785,39.346 297.615,38.482 297.275,37.712C296.935,36.943 296.475,36.284 295.896,35.737C295.318,35.189 294.637,34.77 293.854,34.479C293.071,34.188 292.238,34.043 291.353,34.043C289.515,34.043 288,34.633 286.809,35.814C285.618,36.994 284.869,38.508 284.562,40.355L279.712,39.534C279.916,38.166 280.35,36.891 281.014,35.711C281.678,34.531 282.52,33.504 283.541,32.632C284.562,31.759 285.745,31.084 287.09,30.605C288.434,30.126 289.872,29.886 291.404,29.886C292.901,29.886 294.339,30.109 295.718,30.553C297.096,30.998 298.313,31.648 299.368,32.504C300.423,33.359 301.266,34.436 301.895,35.737C302.525,37.037 302.84,38.525 302.84,40.201C302.84,41.364 302.687,42.442 302.38,43.434C302.074,44.426 301.657,45.367 301.13,46.257C300.602,47.146 299.981,47.993 299.266,48.797C298.551,49.601 297.803,50.396 297.02,51.183L285.277,62.678L302.993,62.678L302.993,67.143Z" style="fill:rgb(131,133,133);fill-rule:nonzero;"/>
                    </g>
                    <g id="Text" transform="matrix(1.18735,1.16598e-16,-6.04402e-16,1.7059,-275.111,15.5426)">
                        <g transform="matrix(0.994872,0,0,1,1.53034,0)">
                            <g transform="matrix(50.9682,0,0,50.9682,323.77,66.8738)">
                            </g>
                            <text x="298.439px" y="66.874px" style="font-family:'SourceSansPro-Regular', 'Source Sans Pro', sans-serif;font-size:50.968px;fill:rgb(131,133,133);">4</text>
                        </g>
                    </g>
                    <g id="Text1" serif:id="Text" transform="matrix(1.18735,1.16598e-16,-6.04402e-16,1.7059,-275.111,15.5426)">
                        <path d="M303.712,54.539L313.854,54.539L313.854,45.11C313.854,44.227 313.888,43.174 313.955,41.95C314.023,40.727 314.073,39.691 314.107,38.841L313.904,38.841C313.499,39.623 313.076,40.387 312.637,41.135C312.197,41.882 311.741,42.647 311.268,43.428L303.712,54.539ZM313.854,66.874L313.854,57.903L299.301,57.903L299.301,55.151L313.144,34.356L317.809,34.356L317.809,54.539L322.22,54.539L322.22,57.903L317.809,57.903L317.809,66.874L313.854,66.874Z" style="fill:rgb(131,133,133);fill-rule:nonzero;"/>
                    </g>
                </g>
            </g>
        </g>
    </g>
</svg>
